X:480
T:Watson's Blues
C:Bill Monroe - Arr. David Grisman
N:Tone Poems
R:bluegrass
L:1/8
Q:1/4=120
M:4/4
K:C
"E"ee ee e2 Bd | "D"dd dd dB de | "E"B3B ^G2 EA | "A7"AA AA B,^C EE | "E"^GB BB3 GE | 
E3E (3B,^CE ^GB | (3"B7"[B^F][BF][BF] (3[BF][BF][BF] [B2F2] {A}(3B^d^f | b8 | 
"E"ee ee eB ed | "D"dd dd dB de | "E"B3B ^G2 EA | (3"A7"AAA (3AAA B,^C EE | "E"[B4^G4] G2 EB, | 
"B7/F#"B,B, B,B, B,_B, A,^G, | "E"EE EE EE E/(3FE | "E7"D7/1A | {B}"A7"^ce4c e2 | 
{^f}g2 {f}g2 (3fgf e2 | "E"{d}ee ee eB ^GE | EE EE E2 ee | ee' ^c'b ^g^f e^c | 
B3B (3B^ce eB | "B7"[b^f][bf] [bf][bf] [bf]f {d}(3^dB{=d}^d | B8 | "E"ee ee eB ed | 
"D"dd dd dB de | "E"B2 BB ^G2 EA | "A"AA AA B,^C EE | "E"[B^G]B BB "C7/G"B3/2G3/2E | 
"B7/F#"B,B, B,B, B,3/2A,3/2^G, | "E"EE EE EE EE | e''6 {g}^gb | {g}"E"^g=g e^c e4 | 
"D"{e}^fa bd' f3A | "E"z2 EE ^GB B{^F}=G | "A7"GG GG B,^C EE | "E"^G/B3/2 BB BB B^c | 
e^c BB ^G2 E2 | "B7"{A}(3B^d^f (3bfe {=d}^dB {=d}^dd | zB ^de f^f e=d | "E"BA {G}^GE {=G}^GE2[^c=G] | 
"D"z6 B,E | "E"^GB BB GE E=G | "A"GG GG (3B,^CE ^G{^F}G | "E"z2 E^C "C7"B,C E2 | 
"B7"{^F}^GB BB GE ^CB, | "E"EE EE EE EE | "E7"[a8d8] | "Second Break""A7"AA (3A^ce g3/2g3/2g | 
(3^fgf e4 ^cB | "E"ee (3edB AG ^GB | [EB,][EB,] [EB,][EB,] [EB,]E (3^GB^c | {^d}ee =d^c BE G^F | 
EE EE {^F}^GG A_B | "B7"{A}(3B^d^f (3bfe {=d}^dB {=d}^d{=d}^d | B8 | [A6E6] {d}ed | 
"D"dd dd dB de | "E"B2 BB ^G2 EA | "A"AA AA B,^C EE | "E"^Gz/4Bz/4B3/2 Gz/4Ez/4E3/2 | 
"B7/F#"B,B, B,B, B,_B, A,^G, | "E"EE EE EE EE | e''8 | 


